static/logos/spotify-glyph-color.svg

<svg width="50" height="50" viewBox="0 0 50 50" fill="none" xmlns="http://www.w3.org/2000/svg">
<g clip-path="url(#clip0_1_961)">
<path d="M25.0016 0.0824585C11.2371 0.0824585 0.078125 11.2411 0.078125 25.0057C0.078125 38.7708 11.2371 49.9286 25.0016 49.9286C38.7677 49.9286 49.9254 38.7708 49.9254 25.0057C49.9254 11.242 38.7677 0.083649 25.0013 0.083649L25.0016 0.0824585V0.0824585ZM36.4314 36.0289C35.985 36.761 35.0266 36.9932 34.2945 36.5438C28.4427 32.9694 21.076 32.1598 12.4004 34.142C11.5644 34.3325 10.7311 33.8086 10.5406 32.9723C10.3493 32.136 10.871 31.3027 11.7091 31.1122C21.2031 28.9423 29.3469 29.8771 35.9165 33.892C36.6487 34.3414 36.8808 35.2967 36.4314 36.0289V36.0289ZM39.482 29.2417C38.9195 30.1569 37.7231 30.4456 36.8094 29.8831C30.11 25.7643 19.8978 24.5717 11.9737 26.9771C10.946 27.2875 9.86057 26.7084 9.54866 25.6825C9.23914 24.6548 9.8186 23.5714 10.8445 23.2589C19.896 20.5125 31.1487 21.8429 38.8421 26.5706C39.7558 27.1331 40.0445 28.3295 39.482 29.242V29.2417ZM39.7439 22.175C31.7112 17.4039 18.4582 16.9652 10.7888 19.2929C9.55729 19.6664 8.25491 18.9711 7.8817 17.7396C7.50848 16.5075 8.20312 15.206 9.43557 14.8316C18.2394 12.1589 32.8748 12.6753 42.1231 18.1655C43.2332 18.8229 43.5963 20.2536 42.9385 21.3598C42.2838 22.4676 40.8493 22.8328 39.7451 22.175H39.7439Z" fill="#1ED760"/>
</g>
<defs>
<clipPath id="clip0_1_961">
<rect width="50" height="50" fill="white"/>
</clipPath>
</defs>
</svg>

<svg xmlns="http://www.w3.org/2000/svg" width="64" height="64" fill="none" viewBox="0 0 50 50"><g clip-path="url(#a)"><path fill="#1ED760" d="M25.002.082C11.237.082.078 11.242.078 25.006c0 13.765 11.16 24.923 24.924 24.923 13.766 0 24.923-11.158 24.923-24.923C49.925 11.242 38.768.084 25.001.084V.082Zm11.43 35.947a1.553 1.553 0 0 1-2.138.515c-5.851-3.575-13.218-4.384-21.894-2.402a1.554 1.554 0 0 1-.69-3.03c9.493-2.17 17.637-1.235 24.206 2.78.733.45.965 1.405.515 2.137Zm3.05-6.787a1.943 1.943 0 0 1-2.673.641c-6.699-4.119-16.911-5.311-24.835-2.906a1.946 1.946 0 0 1-2.425-1.294 1.946 1.946 0 0 1 1.296-2.424c9.051-2.747 20.304-1.416 27.997 3.312a1.942 1.942 0 0 1 .64 2.671Zm.262-7.067c-8.033-4.771-21.286-5.21-28.955-2.882a2.33 2.33 0 1 1-1.353-4.461c8.803-2.673 23.439-2.157 32.687 3.334a2.328 2.328 0 0 1 .816 3.194 2.329 2.329 0 0 1-3.194.815h-.001Z"/></g><defs><clipPath id="a"><path fill="#fff" d="M0 0h50v50H0z"/></clipPath></defs></svg>
